X:0549
T:Kentish March.
M:C
L:1/8
Q:1/2=60 "Slow"
I: :: ::
Z:Jack Campin * www.campin.me.uk * 2009
K:G
 D/E/F |G2g>g g2     B/c/d |E2G>G G2  A>B  |c>de>f      g>dcB      |A>GA>B A2
(D/E/F)|G2G>G G2    (B/c/d)|E2G>G G2  g/f/e|d2  (e/d/)c B2  (c/B/)A|G2 GG  G2::
 Bc    |d2B/c/d G2 (3gfg   |e2d>d d2(3GBd  |c2 (3DAc    B2 (3gdB   |A>GA>B A2
(D/E/F)|G2G>G   G2  (B/c/d)|E2G>G G2  g/f/e|d2  (e/d/)c B2  (c/B/)A|G2 GG  G2:|
<end>
<start>
